X:101
T: Die dienende Schwester
N: Q00753
O: Osteuropa, UdSSR, Russland
R: Ballade, Adelige als Dienstmagd, Tod; Kinder - Spiel, Tanz
M: 3/4
L: 1/8
K: F
CFF | F2_A2GF | G2z
G_AB | c2B2_AG | F2z
Fcc | c2_AGAGF | G2z
G_AB | c3B_AG | F2z

